img/fa/globe-light-white.svg

<svg viewBox="0 0 496 512" xmlns="http://www.w3.org/2000/svg"><path d="m248 8c-137 0-248 111-248 248s111 248 248 248 248-111 248-248-111-248-248-248zm193.2 152h-82.5c-9-44.4-24.1-82.2-43.2-109.1 55 18.2 100.2 57.9 125.7 109.1zm-105.2 96c0 22.9-1.6 44.2-4.3 64h-167.4c-2.7-19.8-4.3-41.1-4.3-64s1.6-44.2 4.3-64h167.4c2.7 19.8 4.3 41.1 4.3 64zm-88-216c26.9 0 61.4 44.1 78.1 120h-156.2c16.7-75.9 51.2-120 78.1-120zm-67.5 10.9c-19 26.8-34.2 64.6-43.2 109.1h-82.5c25.5-51.2 70.7-90.9 125.7-109.1zm-148.5 205.1c0-22.3 3.4-43.8 9.7-64h90.5c-2.6 20.5-4.2 41.8-4.2 64s1.5 43.5 4.2 64h-90.5c-6.3-20.2-9.7-41.7-9.7-64zm22.8 96h82.5c9 44.4 24.1 82.2 43.2 109.1-55-18.2-100.2-57.9-125.7-109.1zm193.2 120c-26.9 0-61.4-44.1-78.1-120h156.2c-16.7 75.9-51.2 120-78.1 120zm67.5-10.9c19-26.8 34.2-64.6 43.2-109.1h82.5c-25.5 51.2-70.7 90.9-125.7 109.1zm48.3-141.1c2.6-20.5 4.2-41.8 4.2-64s-1.5-43.5-4.2-64h90.5c6.3 20.2 9.7 41.7 9.7 64s-3.4 43.8-9.7 64z" fill="#f8f8f8"/></svg>

<?xml version="1.0" encoding="UTF-8" standalone="no"?>
<svg
   xmlns:dc="http://purl.org/dc/elements/1.1/"
   xmlns:cc="http://creativecommons.org/ns#"
   xmlns:rdf="http://www.w3.org/1999/02/22-rdf-syntax-ns#"
   xmlns:svg="http://www.w3.org/2000/svg"
   xmlns="http://www.w3.org/2000/svg"
   xmlns:sodipodi="http://sodipodi.sourceforge.net/DTD/sodipodi-0.dtd"
   xmlns:inkscape="http://www.inkscape.org/namespaces/inkscape"
   aria-hidden="true"
   data-prefix="fal"
   data-icon="globe"
   role="img"
   viewBox="0 0 496 512"
   class="svg-inline--fa fa-globe fa-w-16 fa-7x"
   version="1.1"
   id="svg1615"
   sodipodi:docname="globe-light-white.svg"
   inkscape:version="0.92.4 (5da689c313, 2019-01-14)">
  <metadata
     id="metadata1621">
    <rdf:RDF>
      <cc:Work
         rdf:about="">
        <dc:format>image/svg+xml</dc:format>
        <dc:type
           rdf:resource="http://purl.org/dc/dcmitype/StillImage" />
        <dc:title></dc:title>
      </cc:Work>
    </rdf:RDF>
  </metadata>
  <defs
     id="defs1619" />
  <sodipodi:namedview
     pagecolor="#ffffff"
     bordercolor="#666666"
     borderopacity="1"
     objecttolerance="10"
     gridtolerance="10"
     guidetolerance="10"
     inkscape:pageopacity="0"
     inkscape:pageshadow="2"
     inkscape:window-width="775"
     inkscape:window-height="480"
     id="namedview1617"
     showgrid="false"
     inkscape:zoom="0.4609375"
     inkscape:cx="248"
     inkscape:cy="256"
     inkscape:window-x="70"
     inkscape:window-y="27"
     inkscape:window-maximized="0"
     inkscape:current-layer="svg1615" />
  <path
     fill="currentColor"
     d="M248 8C111 8 0 119 0 256s111 248 248 248 248-111 248-248S385 8 248 8zm193.2 152h-82.5c-9-44.4-24.1-82.2-43.2-109.1 55 18.2 100.2 57.9 125.7 109.1zM336 256c0 22.9-1.6 44.2-4.3 64H164.3c-2.7-19.8-4.3-41.1-4.3-64s1.6-44.2 4.3-64h167.4c2.7 19.8 4.3 41.1 4.3 64zM248 40c26.9 0 61.4 44.1 78.1 120H169.9C186.6 84.1 221.1 40 248 40zm-67.5 10.9c-19 26.8-34.2 64.6-43.2 109.1H54.8c25.5-51.2 70.7-90.9 125.7-109.1zM32 256c0-22.3 3.4-43.8 9.7-64h90.5c-2.6 20.5-4.2 41.8-4.2 64s1.5 43.5 4.2 64H41.7c-6.3-20.2-9.7-41.7-9.7-64zm22.8 96h82.5c9 44.4 24.1 82.2 43.2 109.1-55-18.2-100.2-57.9-125.7-109.1zM248 472c-26.9 0-61.4-44.1-78.1-120h156.2c-16.7 75.9-51.2 120-78.1 120zm67.5-10.9c19-26.8 34.2-64.6 43.2-109.1h82.5c-25.5 51.2-70.7 90.9-125.7 109.1zM363.8 320c2.6-20.5 4.2-41.8 4.2-64s-1.5-43.5-4.2-64h90.5c6.3 20.2 9.7 41.7 9.7 64s-3.4 43.8-9.7 64h-90.5z"
     class=""
     id="path1613"
     style="fill:#f8f8f8;fill-opacity:1" />
</svg>
